X:1
T:Confitebor tibi Domine
T:Constantijn Huygens
T:Confitebor tibi Domine 
T:Psalmus 138:1,2a
C:Constantijn Huygens
%%score 1 { ( 2 3 ) | 4 }
L:1/8
Q:1/4=90
M:4/4
K:Bb
V:1 treble nm="Soprano" snm="S"
V:2 treble nm="Organ" snm="Org."
V:3 treble 
V:4 bass 
V:1
 z2 F4 F2 | G4 F2 B2- | B2 B2 B2 A2 | B2 d4 B2 | z2 AA B2 c2 | d2 d2 e3 e | f4 z ccd | %7
w: Con- fi-|te- bor, con-|* fi- te- bor|_ ti- bi,|con- fi- te- bor|ti- bi, Do- mi-|ne, ex to- to|
 e2 B2 z2 d2- | ddcB A2 B2 | ccc F2 FFF | B2 GG c4- | c3 _d/e/ c4 | z2 A3 AGG | G8 | F8 :: %15
w: cor- de, to-|* to cor- de me- o,|quo- ni- am, quo- ni- am au-|di- sti, au- di-|* * * sti|ver- ba o- ris|me-|i.|
 z2 c4 c2 | B4 B2 e2- | e2 _A2 =A4 | B2 _AB GGcG | _A>(G F)G A>B A/B/c/_d/ | =e2 f2 e4 | f8 | %22
w: In con-|spec- tu, in|_ con- spec-|tu An- ge- lo- rum, An- ge-|lo- rum _ psal- * * * * * *|* lam ti-|bi.|
 z2 F4 _G2 | _A4 A4 | z2 _A4 A2 | B4 B4 | z2 BB B2 BB | B2 B2 B2 B2 | z BBc d4- | d2 e2 f2 f2 | %30
w: A- do-|ra- bo,|a- do-|ra- bo,|a- do- ra- bo in|tem- plum sanc- tum,|in tem- plum sanc-|* tum tu- um,|
 z ggd e(d c2) | f6 BB | B2 B2 z2 _AA | GG c>B A2 d2- | d2 d e/f/ c4 | B8 :| %36
w: et con- fi- te- bor, _|et con- fi-|te- bor, con- fi-|te- bor no- mi- ni, no-|* mi- ni _ tu-|o.|
V:2
 F8 | G4 F2 G2- | G4 F4- | F4 G4 | [D^FA]4 [DGB]4 | [G-B]4 [Gc-]4 | [FAc]4 [F_Ac]4 | %7
 [EGB]4 [DFA]4 | [DFA]2 [EG]2 [CFA]4 | [CFA]4 [DF]4 | [EG]4 [FA]4 | [GB]4 [FAc]4 | [D^FA]6 [DG]2 | %13
 F4 =E4 | [A,CF]8 :: [FA]8 | [DFB]4 [EGB]4 | [E_Ac]4 [F=Ac]4 | [DF]4 [GB]2 [=EGc]2 | [CF]8 | %20
 c/d/=e/f/ g/f/e/d/ c/d/c/d/ cB | [CFA]8 | [F_A]6 [_GB]2 | [F_A]8 | [CE_A]8 | [EGB]8 | [EGB]8 | %27
 [EGB]8 | [EG]4 [FB]4 | [FB]8 | [GBd]4 [EGc]2 [FAc]2 | [FAc]4 [DFB]4 | B8 | [EG]4 [FA]4 | %34
 A2 B4 A2 | [B,DFB]8 :| %36
V:3
 D4 C2 D2 | E2 D4 E2- | E2 B,2 C4 | D8 | x8 | x8 | x8 | x8 | x8 | x8 | x8 | x8 | x8 | [G,C]8 | %14
 x8 :: x8 | x8 | x8 | x8 | x8 | =E2 D2 [CE]4 | x8 | x8 | x8 | x8 | x8 | x8 | x8 | x8 | x8 | x8 | %31
 x8 | [DG]4 [DF]4 | x8 | F2 [EG]2 F4 | x8 :| %36
V:4
 B,4 A,2 B,2 | G,2 D,4 E,2- | E,2 D,2 C,4 | B,,2 B,2 G,4 | ^F,4 G,4 | G,,2 G,2 C2 B,2 | A,4 _A,4 | %7
 G,4 D,4- | D,2 E,2 F,4- | F,4 D,4 | z B,, E,3 C, F,2- | F,2 =E,2 F,4 | A,,6 B,,2 | C,8 | F,8 :: %15
 F,4 C,2 A,,2 | B,,2 B,2 G,4 | _A,4 F,4 | D,4 E,2 =E,2 | F,8 | C,2 B,,2 C,4 | F,8 | _D,8 | _D,8 | %24
 _A,,8 | E,8 | E,8 | E,8 | E,2 D,C, B,,4 | B,,4 B,4 | G,4 C2 A,2 | A,4 B,4 | G,4 D,4 | %33
 E,2 C,2 D,4- | D,2 E,2 F,4 | B,,8 :| %36

